svgs/1F44E-1F3FB.svg

<svg xmlns="http://www.w3.org/2000/svg" xmlns:xlink="http://www.w3.org/1999/xlink" preserveAspectRatio="none" viewBox="0 0 72 72"><defs><path id="a" fill="#FADCBC" d="M102.95 15.95q1.95-1.65 1.85-4.8-.2-6.5-9.95-8.05-3.4-.55-9.25-.65-6.4 0-9.1-.1Q62.15 1.9 53 3q-15.9 1.9-23.15 8.25-3.8 3.65-5.65 5.35-3.25 3-5.25 3.8-4.65 1.9-6.2 8.25-1.15 4.75-.9 14.65.1 2.7.05 12.85.7 9.2 4.85 11.55 4.35 2.45 16.6 7 10.85 4.05 13.55 6.2 5.75 4.5 10.3 12.2 3.3 5.55 5.55 11.9 5.3 14.85 5.4 15.1 2.9 5.9 7.85 5.9 8.6 0 11.5-6.65 1.35-3.2 1.7-11.15.25-6.05-6.2-21.05-3-6.95-3.7-9.05-1.2-3.85.15-4.25 4.05 1.1 11.25 1.35 5.35.2 8.95-.1 6.05-.45 7.8-1.1 3.7-1.45 4.35-5.95.55-3.8-1.05-6.15-1.9-2.75-6.6-3.3-5.3-.4-7.7-.8l-1.9-2.05q1.2.15 4.7.25 3.5.05 4.15.15 5.1.65 8.5-1.35 3.65-2.15 4.25-6.65.55-4.1-2.1-6.85-2.7-2.7-7.1-2.5-1 .1-5.25-.3-5.15-.4-7.95-.5l-.4-1.15-.2-.3q5.2-.15 9.35-.4 4.7-.2 7.35-2.55 2.6-2.25 2.5-5.8-.05-3.8-3.2-6-2.45-1.7-5.9-2-2.1-.2-8.3 0-6.2.2-11.2.6l-1.1-1.8 13.9-.65q4.4-.35 6.4-2z"/><path id="b" fill="#DBA689" d="M83.55 18.55h-2.3q-4.75.05-7.45-.65l-1.8-.7q-2.45-1.55-3.05-4.25l-.1-2.45q.3-2.3 2.25-4.05 1.75-1.6 3.8-1.9 4.85-.65 13.55-1.1 6.25-.35 5.35-.5-3.25-.45-9.55-.75-7-.35-9.85 0-3.8.45-6.35 2.7-3.25 2.85-3.25 7.85 0 3.4 1.8 5.6 1.45 1.75 3.1 2.1-2.1 1-3.55 3.5-1.6 2.75-1.6 6.1 0 3.85 3.2 6.35 2.65 2.1 5.2 2-1.3.75-2.5 2.15-2.4 2.8-2.45 6.55-.1 3.7 1.25 6 .7 1.1 1.4 1.5-2.05 1-3.1 3.15-.9 1.95-1.15 5.3-.3 4.6 3.2 7.9 3.4 3.3 9.15 4.05l.2-.8q.25-.3.6-.35-3.4-1.2-5.5-3.65-2.6-2.9-1.9-8.5.85-7 17.35-4.75 9.3 1.25 15.3 1.75-.2-.7-.15-1.1.05-.75 1-1.35-.95.05-2.25-.1-5.9-.6-19.85-2.4Q77.65 53 75.6 52q-3.05-1.45-3.05-4.95l.1-1.7q.25-2.8 2.3-4.6 2.9-2.65 8.8-2.5l23.2.55q-1.25-.6-1.15-2l.35-1.25q-5.3.7-17.4.45l-11.05-.45q-5.3-.2-7.2-3l-.9-2.8q0-4.05 3.2-6.5 1.55-1.2 3.15-1.6 1.15-.5 16.6-1.45l8.3-.45q-.95 0-1.1-1.2-.05-.75.3-1.2-1.5.45-3.55.6-12.25.55-12.95.6z"/><path id="c" fill="#DBA689" d="M65.8 35.9q-2.45-3.5-5.65-6.35l-2.7-2.15q-2.1-1.6-3.3-1.55l-.8.4q-.7.7.15 1.8.45.5 1.05.9 11.35 7.8 13.4 20 1.05 6.1-.2 10.6l3.35.95q2.55-13.45-5.3-24.6z"/></defs><use transform="scale(.5625)" xlink:href="#a"/><use transform="scale(.5625)" xlink:href="#b"/><use transform="scale(.5625)" xlink:href="#c"/></svg>

<svg xmlns="http://www.w3.org/2000/svg" version="1.1" xmlns:xlink="http://www.w3.org/1999/xlink" preserveAspectRatio="none" x="0px" y="0px" width="72px" height="72px" viewBox="0 0 72 72">
<defs>
<g id="Layer0_0_MEMBER_0_FILL">
<path fill="#FADCBC" stroke="none" d="
M 102.95 15.95
Q 104.9 14.3 104.8 11.15 104.6 4.65 94.85 3.1 91.45 2.55 85.6 2.45 79.2 2.45 76.5 2.35 62.15 1.9 53 3 37.1 4.9 29.85 11.25 26.05 14.9 24.2 16.6 20.95 19.6 18.95 20.4 14.3 22.3 12.75 28.65 11.6 33.4 11.85 43.3 11.95 46 11.9 56.15 12.6 65.35 16.75 67.7 21.1 70.15 33.35 74.7 44.2 78.75 46.9 80.9 52.65 85.4 57.2 93.1 60.5 98.65 62.75 105 68.05 119.85 68.15 120.1 71.05 126 76 126 84.6 126 87.5 119.35 88.85 116.15 89.2 108.2 89.45 102.15 83 87.15 80 80.2 79.3 78.1 78.1 74.25 79.45 73.85 83.5 74.95 90.7 75.2 96.05 75.4 99.65 75.1 105.7 74.65 107.45 74 111.15 72.55 111.8 68.05 112.35 64.25 110.75 61.9 108.85 59.15 104.15 58.6 98.85 58.2 96.45 57.8
L 94.55 55.75
Q 95.75 55.9 99.25 56 102.75 56.05 103.4 56.15 108.5 56.8 111.9 54.8 115.55 52.65 116.15 48.15 116.7 44.05 114.05 41.3 111.35 38.6 106.95 38.8 105.95 38.9 101.7 38.5 96.55 38.1 93.75 38
L 93.35 36.85 93.15 36.55
Q 98.35 36.4 102.5 36.15 107.2 35.95 109.85 33.6 112.45 31.35 112.35 27.8 112.3 24 109.15 21.8 106.7 20.1 103.25 19.8 101.15 19.6 94.95 19.8 88.75 20 83.75 20.4
L 82.65 18.6 96.55 17.95
Q 100.95 17.6 102.95 15.95 Z"/>
</g>

<g id="Layer0_0_MEMBER_1_FILL">
<path fill="#DBA689" stroke="none" d="
M 83.55 18.55
L 81.25 18.55
Q 76.5 18.6 73.8 17.9
L 72 17.2
Q 69.55 15.65 68.95 12.95
L 68.85 10.5
Q 69.15 8.2 71.1 6.45 72.85 4.85 74.9 4.55 79.75 3.9 88.45 3.45 94.7 3.1 93.8 2.95 90.55 2.5 84.25 2.2 77.25 1.85 74.4 2.2 70.6 2.65 68.05 4.9 64.8 7.75 64.8 12.75 64.8 16.15 66.6 18.35 68.05 20.1 69.7 20.45 67.6 21.45 66.15 23.95 64.55 26.7 64.55 30.05 64.55 33.9 67.75 36.4 70.4 38.5 72.95 38.4 71.65 39.15 70.45 40.55 68.05 43.35 68 47.1 67.9 50.8 69.25 53.1 69.95 54.2 70.65 54.6 68.6 55.6 67.55 57.75 66.65 59.7 66.4 63.05 66.1 67.65 69.6 70.95 73 74.25 78.75 75
L 78.95 74.2
Q 79.2 73.9 79.55 73.85 76.15 72.65 74.05 70.2 71.45 67.3 72.15 61.7 73 54.7 89.5 56.95 98.8 58.2 104.8 58.7 104.6 58 104.65 57.6 104.7 56.85 105.65 56.25 104.7 56.3 103.4 56.15 97.5 55.55 83.55 53.75 77.65 53 75.6 52 72.55 50.55 72.55 47.05
L 72.65 45.35
Q 72.9 42.55 74.95 40.75 77.85 38.1 83.75 38.25
L 106.95 38.8
Q 105.7 38.2 105.8 36.8
L 106.15 35.55
Q 100.85 36.25 88.75 36
L 77.7 35.55
Q 72.4 35.35 70.5 32.55
L 69.6 29.75
Q 69.6 25.7 72.8 23.25 74.35 22.05 75.95 21.65 77.1 21.15 92.55 20.2
L 100.85 19.75
Q 99.9 19.75 99.75 18.55 99.7 17.8 100.05 17.35 98.55 17.8 96.5 17.95 84.25 18.5 83.55 18.55 Z"/>
</g>

<g id="Layer0_0_MEMBER_2_FILL">
<path fill="#DBA689" stroke="none" d="
M 65.8 35.9
Q 63.35 32.4 60.15 29.55
L 57.45 27.4
Q 55.35 25.8 54.15 25.85
L 53.35 26.25
Q 52.65 26.95 53.5 28.05 53.95 28.55 54.55 28.95 65.9 36.75 67.95 48.95 69 55.05 67.75 59.55
L 71.1 60.5
Q 73.65 47.05 65.8 35.9 Z"/>
</g>
</defs>

<g id="Layer_1">
<g transform="matrix( 0.5625, 0, 0, 0.5625, 0,0) ">
<use xlink:href="#Layer0_0_MEMBER_0_FILL"/>
</g>

<g transform="matrix( 0.5625, 0, 0, 0.5625, 0,0) ">
<use xlink:href="#Layer0_0_MEMBER_1_FILL"/>
</g>

<g transform="matrix( 0.5625, 0, 0, 0.5625, 0,0) ">
<use xlink:href="#Layer0_0_MEMBER_2_FILL"/>
</g>
</g>
</svg>
